X:673
M:C|
L:1/8
K:D
|:g|f/g/a da fdaf|e/=f/g =cg ecge|1 f/g/a da fdad|B/c/d Ad FDD:|2
afge fdec|dcdA FDD||

